resources/haticons/SVG/toc.svg

<!-- Generated by IcoMoon.io -->
<svg version="1.1" xmlns="http://www.w3.org/2000/svg" width="24" height="24" viewBox="0 0 24 24">
<title>toc</title>
<path d="M18.984 12.984v-1.969h2.016v1.969h-2.016zM18.984 6.984h2.016v2.016h-2.016v-2.016zM18.984 17.016v-2.016h2.016v2.016h-2.016zM3 17.016v-2.016h14.016v2.016h-14.016zM3 12.984v-1.969h14.016v1.969h-14.016zM3 9v-2.016h14.016v2.016h-14.016z"></path>
</svg>

<svg xmlns="http://www.w3.org/2000/svg" width="24" height="24"><path d="M18.984 12.984v-1.969H21v1.969h-2.016zm0-6H21V9h-2.016V6.984zm0 10.032V15H21v2.016h-2.016zM3 17.016V15h14.016v2.016H3zm0-4.032v-1.969h14.016v1.969H3zM3 9V6.984h14.016V9H3z"/></svg>
